X: 1
T: Madame Maxwell
M: 4/4
L: 1/8
R: hornpipe
K: Dmaj
AB A2 AF D2|F2 A2 A3 d|cd e2 de f2|ef g2 f3 e|
d2 A2 GFED|G2 B2 B3 d|c2 BA e2 dc|d2 D2 D4:|
a2 d2 a2 d2|g2 b2 b2 ag|f2 d2 a2 gf|g2 e2 e3 g|
fg a2 ga b2|a3 g f3 e|d2 d2 e3 d|c2 A2 A2 Bc|
d2 d2 cBAG|F2 D2 D3 d|cd e2 fe d2|c2 A2 A2 Bc|
dcBA BAGF|G2 B2 B3 A|BAGF AGFE|D2 D2 D4:|
